trunk/public/assets/images/icons/blue/remove/key.svg

<svg width="16" height="16" xmlns="http://www.w3.org/2000/svg" viewBox="0 0 16 16" shape-rendering="geometricPrecision" fill="#24437c"><defs><mask id="a"><rect fill="#fff" width="100%" height="100%"/><path fill="#000" d="M8.986 1.143H17v3.565H8.986z"/></mask></defs><path d="M9.986 2.143H16v1.565H9.986z" fill="#cb1800"/><path d="M14.085 1.94c2.48 2.476 2.478 6.488.002 8.964-2.15 2.153-5.458 2.432-7.916.847h-.008v2.126l-.013.014H4.02v2.123H.012V12h.01l-.002-.006L3.594 8.42c-.73-2.204-.226-4.73 1.528-6.48 2.476-2.477 6.488-2.477 8.963 0zm-3.928 3.927c.78.78 2.043.78 2.824.002.78-.78.78-2.044 0-2.824-.78-.78-2.04-.78-2.822 0-.78.78-.78 2.044 0 2.82z" mask="url(#a)"/></svg>

<?xml version="1.0"?><!DOCTYPE svg PUBLIC "-//W3C//DTD SVG 1.1//EN" "http://www.w3.org/Graphics/SVG/1.1/DTD/svg11.dtd"><svg width="16px" height="16px" xmlns="http://www.w3.org/2000/svg" viewBox="0 0 16 16" shape-rendering="geometricPrecision" fill="#24437c"><defs><mask id="remove-path"><rect fill="#fff" width="100%" height="100%"/><rect x="8.986" y="1.143" width="8.014" height="3.565" fill="#000"/></mask></defs><g fill="#cb1800"><rect x="9.986" y="2.143" width="6.014" height="1.565"/></g><g mask="url(#remove-path)"><path d="M14.085,1.939c2.479,2.477,2.478,6.489,0.002,8.965c-2.15,2.153-5.458,2.432-7.916,0.847H6.162v2.125 L6.149,13.89H4.022v2.123H0.013v-4.014h0.01L0.02,11.994l3.574-3.573C2.863,6.216,3.368,3.691,5.122,1.94 C7.598-0.537,11.61-0.537,14.085,1.939z M10.157,5.867c0.78,0.78,2.043,0.779,2.824,0.002c0.779-0.78,0.779-2.043-0.001-2.823 c-0.78-0.779-2.041-0.779-2.822,0C9.379,3.825,9.379,5.09,10.157,5.867z"/></g></svg>
